X: 1
T: I Have Two Yellow Goats - polka
%T: Highland Laddie
C: trad.
%D:1989
R: polka, march
D: Begley & Cooney: Meitheal
D: Michael Tubridy: The Eagle's Whistle
S: Fiddle Hell Online 2022-4-3
Z: 2022 John Chambers <jc:trillian.mit.edu>
M: 2/4
L: 1/8
K: G	% and Em
"^A"\
|: DG GA | B2 A>G | BA A>A | BA Bd |\
|  DG GA | B2 QA>G | GE ED | GE ED :|
"^B"\
|: ed eg | d2 c>B | BA A>A | BA Bd |\
|  ed eg | d2 c>B | AG G>A | BG [1 Gd :|2 GE |]
